src/assets/icons/viewCrops.svg

<svg width="78" height="87" viewBox="0 0 78 87" fill="none" xmlns="http://www.w3.org/2000/svg">
<path d="M19.5652 0.449131C19.2865 0.684282 19.1626 0.953026 19.1626 1.30575C19.1626 2.0616 20.68 5.75683 21.1445 6.15995C21.8567 6.74782 22.8787 6.19354 22.8787 5.21934C22.8787 4.54748 21.4077 0.785061 20.9897 0.381945C20.5716 -0.0043752 20.0761 0.0124213 19.5652 0.449131Z" fill="black" fill-opacity="0.7"/>
<path d="M38.1144 0.415346C37.3866 0.768073 36.3492 2.0614 34.9557 4.27855C32.339 8.51127 30.5429 13.0295 29.7997 17.2287C29.3197 20.0001 29.3352 24.6191 29.8307 27.1386C30.8216 32.2112 32.9119 36.6118 36.4112 41.0293L37.8976 42.8937V47.8151V52.7197L37.015 50.8049C32.9274 41.9867 26.0837 36.9646 16.1277 35.4697C13.8207 35.117 11.9472 35.1002 11.2659 35.4025C10.5691 35.7216 9.77948 36.6958 9.54722 37.5357C9.33045 38.3251 9.53174 40.4415 10.1201 43.4312C11.4672 50.3514 14.1458 55.9614 18.187 60.3285L19.9057 62.2097L19.2864 62.848C18.5277 63.6542 16.9484 66.2073 16.5922 67.2151C16.4529 67.6182 16.2826 67.9541 16.2206 67.9541C16.1587 67.9541 15.9884 67.635 15.849 67.2487C15.4619 66.1401 14.1458 63.9902 13.1549 62.8816C10.8478 60.2445 7.17824 58.4305 3.55509 58.1114C2.48672 58.0274 2.28544 58.061 1.66609 58.4137C0.706113 58.9848 0.0867714 59.9758 0.00935361 61.1012C-0.129998 63.016 1.30997 67.551 2.84284 70.0705C5.16538 73.8665 8.85046 76.218 13.511 76.8731L14.9819 77.0747V81.005C14.9819 83.6757 15.0439 85.053 15.1678 85.305C15.6632 86.3295 16.7626 86.3799 17.2271 85.4057C17.4129 85.0362 17.4593 84.1292 17.4593 81.005V77.0747L18.8219 76.8731C21.485 76.5036 24.1018 75.5126 25.8824 74.1857C27.5856 72.9091 29.3507 70.7592 30.4036 68.6596C30.8371 67.7862 30.8681 67.7694 31.3945 67.8534C33.4229 68.2229 35.0796 68.458 36.3957 68.5588L37.8976 68.6764V76.1173V83.5749H36.148C34.5067 83.5749 34.3674 83.6085 34.0577 83.9612C33.6087 84.4819 33.6241 85.1706 34.1041 85.6745L34.4757 86.0944H38.9815H43.4872L43.8588 85.6745C44.3542 85.1538 44.3697 84.4315 43.8897 83.9444C43.5646 83.6085 43.3633 83.5749 41.9543 83.5749H40.375V76.1173V68.6764L41.8149 68.5588C44.8188 68.3237 48.0393 67.6518 50.3464 66.7784L51.2599 66.4425L53.2108 68.4412C54.2792 69.5498 55.9359 71.2967 56.865 72.3212C58.8004 74.4544 58.7849 74.4544 56.1992 73.497C54.7437 72.9595 53.5824 72.2373 52.3283 71.1119C51.3218 70.1713 50.7799 70.0873 50.207 70.7256C49.4483 71.5318 49.8045 72.3212 51.5541 73.7489C52.7463 74.7231 54.9605 75.8989 56.4314 76.3356C57.0353 76.5204 58.212 76.7555 59.0172 76.8563L60.5036 77.0579V81.005C60.5036 84.1964 60.55 85.0362 60.7358 85.4225C61.1539 86.3127 62.3306 86.3127 62.7487 85.4225C62.9345 85.0362 62.981 84.1964 62.981 81.005V77.0747L64.4829 76.8731C71.2492 75.9157 75.8168 71.3974 77.551 63.9902C77.7987 62.9152 78 61.7226 78 61.3363C77.9845 59.9086 77.0865 58.5985 75.8168 58.1786C75.3213 58.0274 74.9033 58.0274 73.8504 58.1954C68.3383 59.0352 64.359 62.0586 62.2687 66.9464C62.0365 67.5006 61.7887 67.9541 61.7423 67.9541C61.6803 67.9541 61.51 67.6182 61.3707 67.1983C61.0145 66.1905 59.7294 64.0909 58.8778 63.1L58.1811 62.2937L60.163 60.127C63.2751 56.7173 65.4893 52.7533 66.9757 47.8823C68.1525 44.0527 69.0041 38.9298 68.6944 37.6364C68.4621 36.7294 67.8892 35.94 67.1305 35.5201C66.4028 35.117 64.9783 35.0666 62.6713 35.3689C57.3604 36.0744 53.2883 37.6196 49.4948 40.3911C45.949 42.9609 43.2704 46.337 41.1956 50.8217L40.375 52.5853L40.3905 47.7983V43.0113L41.6911 41.4157C46.2123 35.9232 48.9683 29.3054 49.3399 23.1074C49.758 15.801 47.5439 9.21672 42.4343 2.61569C40.5298 0.163398 39.5853 -0.306904 38.1144 0.415346ZM42.8369 7.48668C45.4845 11.7698 46.8006 15.8346 46.9864 20.2688L47.0793 22.2172L46.1658 22.9731C45.6549 23.393 44.153 24.6023 42.8214 25.6773L40.375 27.6425V15.8345L40.3905 4.04339L41.0098 4.79924C41.3504 5.21915 42.1711 6.4285 42.8369 7.48668ZM37.8976 12.0385V19.597L37.526 19.2946C37.3247 19.1267 36.1944 17.9845 35.0177 16.7584L32.8654 14.5412L33.1596 13.651C33.6396 12.1729 34.6615 9.83819 35.5441 8.15854C36.3647 6.59646 37.6963 4.46331 37.8357 4.46331C37.8666 4.46331 37.8976 7.873 37.8976 12.0385ZM36.3183 21.6461L37.8976 23.2922L37.8666 31.1194L37.8202 38.9466L36.6899 37.2837C32.6332 31.3713 31.0848 25.0894 32.0293 18.522L32.1997 17.363L33.4693 18.69C34.1506 19.4122 35.4357 20.7391 36.3183 21.6461ZM46.1813 27.7433C45.2987 31.0354 43.7194 34.3611 41.5827 37.4685L40.4524 39.0977L40.4059 35.0162C40.375 31.892 40.4214 30.8842 40.5608 30.7331C41.1337 30.1284 46.491 25.9629 46.5219 26.0804C46.5529 26.1644 46.3981 26.9035 46.1813 27.7433ZM16.6851 38.1571C18.2954 38.4259 20.107 38.8962 21.6089 39.4169L22.5689 39.7696V43.616C22.5689 45.7324 22.5534 47.4624 22.5224 47.4624C22.507 47.4624 20.4786 45.2788 18.0012 42.5914L13.5265 37.7204L14.3626 37.8212C14.8271 37.8716 15.88 38.0228 16.6851 38.1571ZM57.4843 45.6148C53.4895 49.9483 50.1606 53.5091 50.0986 53.5091C50.0212 53.5091 49.9748 51.1576 49.9748 48.3022V43.0953L51.1206 42.2723C54.6198 39.8032 59.2185 38.2411 64.5293 37.7372C64.6532 37.7372 61.4791 41.2645 57.4843 45.6148ZM15.2142 43.2633L18.4657 46.7905H15.911H13.3407L12.9381 45.1445C12.5046 43.448 11.8233 39.736 11.9317 39.736C11.9472 39.736 13.4336 41.3149 15.2142 43.2633ZM66.1706 40.6934C65.7835 43.616 64.6532 47.7815 63.5229 50.4354L62.9345 51.8295H59.0481H55.1618L60.6584 45.8667C63.6777 42.5914 66.1861 39.904 66.217 39.904C66.248 39.904 66.217 40.2567 66.1706 40.6934ZM26.192 41.6676C28.9017 43.4312 31.4255 45.9675 33.0358 48.5542C35.4977 52.4678 37.3092 58.0106 37.6808 62.7472L37.7737 64.007L31.3326 57.0364L24.8914 50.0659V45.5812C24.8914 41.9867 24.9379 41.0797 25.0927 41.0797C25.2011 41.0797 25.6966 41.3485 26.192 41.6676ZM44.0601 60.1774C42.0782 62.3273 40.4524 64.0574 40.4214 64.0238C40.3905 63.9902 40.4834 63.1168 40.6072 62.0586C41.3504 55.9278 43.5956 50.2002 46.7542 46.3874L47.5748 45.3796L47.6213 50.8217L47.6522 56.2806L44.0601 60.1774ZM28.5301 57.7083C33.6396 63.2511 36.0086 65.9386 35.8073 65.9386C35.0486 65.9218 32.1532 65.4011 30.7442 65.0148C26.3469 63.8054 22.7547 61.6219 19.7044 58.3129C18.7135 57.238 17.5677 55.7767 16.9948 54.8529C16.0968 53.4084 14.3626 49.9819 14.3626 49.6291C14.3626 49.5452 15.849 49.478 17.6606 49.478H20.9431L28.5301 57.7083ZM61.4326 54.4665C61.4326 54.7689 59.5126 57.2884 58.3359 58.5481C55.0534 62.0586 51.0277 64.2757 46.0265 65.3507C45.0046 65.569 43.7194 65.7874 43.162 65.8546L42.1556 65.9722L47.4974 60.1606L52.8392 54.349H57.1282C59.4972 54.349 61.4326 54.3994 61.4326 54.4665ZM6.38858 61.3531C10.6775 62.7976 13.5265 66.2409 14.5794 71.2799L14.7961 72.338L13.4646 70.9943C12.7213 70.2553 10.2749 67.6518 8.01435 65.1995C4.03508 60.866 3.94218 60.7484 4.53055 60.8492C4.87119 60.8996 5.7073 61.1348 6.38858 61.3531ZM69.3292 65.8714C66.728 68.6932 64.2816 71.2967 63.879 71.6662L63.1668 72.3212L63.3835 71.2799C64.2196 67.2655 66.3873 63.9902 69.3137 62.3609C70.6453 61.6051 72.6737 60.8996 73.8969 60.7484C73.9743 60.7316 71.9304 63.0496 69.3292 65.8714ZM12.2723 73.329L13.0465 74.1857L12.4272 74.0681C11.3278 73.8665 9.284 72.9763 8.29305 72.2877C5.87762 70.608 4.00411 67.9038 3.0751 64.6788C2.87381 64.0238 2.68801 63.4023 2.65704 63.2679C2.59511 63.0664 10.2904 71.1119 12.2723 73.329ZM75.151 63.8726C74.3149 67.2823 72.3175 70.4064 69.8402 72.1701C68.7099 72.9595 66.6815 73.8665 65.5357 74.0681C64.9474 74.1689 65.1332 73.9505 70.1034 68.6428C72.9524 65.5858 75.3059 63.1 75.3213 63.0832C75.3213 63.0832 75.2594 63.4359 75.151 63.8726ZM23.1263 64.4605C23.7611 64.8468 24.2721 65.2163 24.2721 65.2667C24.2721 65.4011 17.8619 72.3212 17.738 72.3212C17.5987 72.3212 18.0012 70.5576 18.4193 69.2811C18.9767 67.6182 19.8593 66.0393 20.8967 64.8468C21.4076 64.2421 21.8721 63.755 21.9031 63.755C21.9495 63.755 22.507 64.0742 23.1263 64.4605ZM58.7539 67.3999C59.3888 68.71 59.8997 70.2553 60.1784 71.6158L60.3178 72.3212L59.4352 71.4982C58.9552 71.0447 57.4688 69.4658 56.1217 67.9877L53.6753 65.3171L54.8831 64.5613L56.0908 63.7886L57.1127 64.9476C57.763 65.6698 58.3669 66.56 58.7539 67.3999ZM27.6785 66.728C28.0655 66.8792 28.4062 67.0303 28.4372 67.0471C28.5455 67.1311 27.5236 68.8948 26.8733 69.7514C25.2166 71.9013 22.476 73.6146 20.0141 74.0681C19.4102 74.1689 19.5031 74.0513 23.0334 70.3057C25.0308 68.1893 26.734 66.4425 26.8269 66.4425C26.9043 66.4425 27.2914 66.5768 27.6785 66.728Z" fill="black" fill-opacity="0.7"/>
<path d="M56.9732 0.38175C56.5552 0.784867 55.0842 4.54729 55.0842 5.21915C55.0842 6.57967 56.7565 6.83161 57.3139 5.57187C58.1655 3.60668 58.8003 1.80945 58.8003 1.33915C58.8003 0.348157 57.6545 -0.256518 56.9732 0.38175Z" fill="black" fill-opacity="0.7"/>
<path d="M11.7303 7.15085C11.5445 7.35241 11.4207 7.70514 11.4207 8.05787C11.4207 8.54496 11.529 8.74652 12.0864 9.21682C13.5109 10.443 15.2761 11.6859 15.6322 11.6859C16.4528 11.6859 17.0722 10.6277 16.7005 9.85509C16.6076 9.68713 15.7406 8.91449 14.7651 8.17544C12.8606 6.69735 12.3187 6.51259 11.7303 7.15085Z" fill="black" fill-opacity="0.7"/>
<path d="M63.1667 8.19224C61.2777 9.65353 60.9835 10.0734 61.2932 10.8797C61.4945 11.4172 61.8661 11.6859 62.3925 11.6859C62.7177 11.6859 65.3189 9.8215 66.2015 8.94808C66.635 8.51137 66.666 7.62116 66.2324 7.15085C65.6441 6.51259 65.0712 6.71414 63.1667 8.19224Z" fill="black" fill-opacity="0.7"/>
<path d="M7.3641 16.7249C6.99249 17.1448 6.91507 17.3296 7.00797 17.6991C7.17829 18.4717 7.5499 18.6901 9.74856 19.3284C11.7305 19.8826 11.9008 19.9162 12.3188 19.6811C12.8143 19.4123 12.9691 19.11 12.9691 18.4885C12.9691 17.7159 12.5201 17.4303 10.3369 16.8089C9.19115 16.4897 8.15376 16.221 8.04537 16.221C7.9215 16.221 7.62732 16.4561 7.3641 16.7249Z" fill="black" fill-opacity="0.7"/>
<path d="M67.5487 16.8257C65.4429 17.4471 64.9939 17.7327 64.9939 18.4885C64.9939 19.11 65.1487 19.4123 65.6442 19.6811C66.0623 19.9162 66.2326 19.8826 68.2145 19.3284C70.4286 18.6901 71.0325 18.3206 71.0325 17.5479C71.0325 17.1112 70.2119 16.221 69.8402 16.2378C69.6854 16.2378 68.6635 16.5065 67.5487 16.8257Z" fill="black" fill-opacity="0.7"/>
</svg>

<svg xmlns="http://www.w3.org/2000/svg" width="78" height="87" fill="none"><path fill="#000" fill-opacity=".7" d="M19.565.45a1.045 1.045 0 0 0-.402.856c0 .756 1.517 4.45 1.982 4.854.712.588 1.734.034 1.734-.94 0-.673-1.471-4.435-1.89-4.838-.417-.386-.913-.37-1.424.067ZM38.114.415c-.727.353-1.765 1.646-3.158 3.864-2.617 4.232-4.413 8.75-5.156 12.95-.48 2.771-.465 7.39.03 9.91.992 5.072 3.082 9.473 6.581 13.89l1.487 1.865v9.826l-.883-1.915c-4.088-8.818-10.931-13.84-20.887-15.335-2.307-.353-4.18-.37-4.862-.067-.697.319-1.487 1.293-1.719 2.133-.217.79-.015 2.905.573 5.895 1.347 6.92 4.026 12.53 8.067 16.898l1.719 1.88-.62.639c-.758.806-2.338 3.36-2.694 4.367-.14.403-.31.74-.371.74-.062 0-.233-.32-.372-.706-.387-1.109-1.703-3.259-2.694-4.367-2.307-2.637-5.977-4.451-9.6-4.77-1.068-.085-1.27-.051-1.889.302A3.383 3.383 0 0 0 .01 61.1c-.139 1.915 1.301 6.45 2.834 8.97 2.322 3.796 6.007 6.147 10.668 6.802l1.47.202v3.93c0 2.67.063 4.048.187 4.3.495 1.024 1.595 1.075 2.06.1.185-.369.231-1.276.231-4.4v-3.93l1.363-.202c2.663-.37 5.28-1.36 7.06-2.687 1.704-1.277 3.469-3.427 4.522-5.526.433-.874.464-.89.99-.807 2.029.37 3.686.605 5.002.706l1.502.117V83.575h-1.75c-1.641 0-1.78.034-2.09.386-.45.52-.434 1.21.046 1.713l.372.42h9.011l.372-.42c.495-.52.51-1.243.03-1.73-.324-.335-.526-.37-1.935-.37h-1.579V68.678l1.44-.118c3.004-.235 6.224-.907 8.531-1.78l.914-.337 1.95 2a216.357 216.357 0 0 1 3.655 3.88c1.935 2.132 1.92 2.132-.666 1.175-1.455-.537-2.617-1.26-3.87-2.385-1.007-.94-1.55-1.025-2.122-.386-.759.806-.403 1.595 1.347 3.023 1.192.974 3.407 2.15 4.877 2.587.604.184 1.781.42 2.586.52l1.487.202v3.947c0 3.191.046 4.031.232 4.418.418.89 1.595.89 2.013 0 .185-.387.232-1.227.232-4.418v-3.93l1.502-.202c6.766-.957 11.334-5.476 13.068-12.883.248-1.075.449-2.267.449-2.654-.016-1.427-.913-2.737-2.183-3.157-.496-.152-.914-.152-1.967.016-5.512.84-9.491 3.864-11.581 8.751-.233.555-.48 1.008-.527 1.008-.062 0-.232-.336-.371-.756-.357-1.007-1.642-3.107-2.493-4.098l-.697-.806 1.982-2.167c3.112-3.41 5.326-7.374 6.813-12.245 1.177-3.83 2.028-8.952 1.718-10.246-.232-.907-.805-1.696-1.564-2.116-.727-.403-2.152-.453-4.459-.151-5.31.705-9.383 2.25-13.176 5.022-3.546 2.57-6.225 5.946-8.3 10.43l-.82 1.764.016-4.787v-4.787l1.3-1.595c4.521-5.493 7.277-12.11 7.649-18.309.418-7.306-1.796-13.89-6.906-20.491-1.904-2.453-2.849-2.923-4.32-2.2Zm4.723 7.072c2.647 4.283 3.964 8.348 4.15 12.782l.092 1.948-.913.756c-.511.42-2.013 1.63-3.345 2.704l-2.446 1.965V15.835l.016-11.792.619.756c.34.42 1.161 1.63 1.827 2.688Zm-4.94 4.552v7.558l-.371-.302c-.201-.168-1.332-1.31-2.508-2.537l-2.153-2.217.295-.89c.48-1.478 1.502-3.813 2.384-5.492.82-1.563 2.152-3.696 2.292-3.696.03 0 .062 3.41.062 7.576Zm-1.579 9.607 1.58 1.646-.031 7.827-.047 7.828-1.13-1.663c-4.057-5.913-5.605-12.195-4.66-18.762l.17-1.159 1.27 1.327c.68.722 1.966 2.05 2.848 2.956Zm9.863 6.097c-.882 3.292-2.462 6.618-4.598 9.726l-1.13 1.629-.047-4.082c-.031-3.124.015-4.132.155-4.283.573-.605 5.93-4.77 5.96-4.653.032.084-.123.824-.34 1.663ZM16.685 38.157c1.61.269 3.422.74 4.924 1.26l.96.353v3.846c0 2.116-.016 3.846-.047 3.846-.015 0-2.043-2.183-4.52-4.87l-4.475-4.872.836.101c.464.05 1.517.202 2.322.336Zm40.8 7.458c-3.995 4.333-7.324 7.894-7.386 7.894-.078 0-.124-2.351-.124-5.207v-5.207l1.146-.823c3.499-2.469 8.097-4.03 13.408-4.535.124 0-3.05 3.527-7.045 7.878Zm-42.27-2.352 3.25 3.528h-5.124l-.403-1.646c-.433-1.697-1.115-5.409-1.006-5.409.015 0 1.502 1.579 3.282 3.527Zm50.956-2.57c-.388 2.923-1.518 7.089-2.648 9.742l-.589 1.395h-7.772l5.496-5.963c3.02-3.276 5.528-5.963 5.559-5.963.031 0 0 .353-.046.79Zm-39.979.975c2.71 1.763 5.233 4.3 6.844 6.886 2.462 3.914 4.273 9.457 4.645 14.193l.093 1.26-6.441-6.97-6.442-6.971V45.58c0-3.594.047-4.501.202-4.501.108 0 .604.269 1.099.588Zm17.868 18.51c-1.982 2.15-3.608 3.88-3.639 3.846-.03-.034.062-.907.186-1.965.743-6.131 2.989-11.859 6.147-15.672l.82-1.007.047 5.442.031 5.459-3.592 3.896Zm-15.53-2.47c5.11 5.543 7.479 8.23 7.277 8.23-.758-.016-3.654-.537-5.063-.923-4.397-1.21-7.99-3.393-11.04-6.702-.99-1.075-2.136-2.536-2.71-3.46-.897-1.445-2.631-4.871-2.631-5.224 0-.084 1.486-.151 3.298-.151h3.282l7.587 8.23Zm32.903-3.241c0 .302-1.92 2.821-3.097 4.081-3.283 3.51-7.308 5.728-12.31 6.803a40.632 40.632 0 0 1-2.864.504l-1.006.117 5.341-5.811 5.342-5.812h4.29c2.368 0 4.304.05 4.304.118ZM6.389 61.353c4.288 1.445 7.138 4.888 8.19 9.927l.217 1.058-1.331-1.344c-.744-.739-3.19-3.342-5.45-5.794-3.98-4.334-4.073-4.452-3.484-4.35.34.05 1.176.285 1.858.503Zm62.94 4.518c-2.601 2.822-5.047 5.426-5.45 5.795l-.712.655.216-1.041c.837-4.014 3.004-7.29 5.93-8.92 1.332-.755 3.36-1.46 4.584-1.612.077-.016-1.967 2.302-4.568 5.123ZM12.272 73.33l.774.857-.619-.118c-1.1-.201-3.143-1.092-4.134-1.78-2.415-1.68-4.289-4.384-5.218-7.61a43.222 43.222 0 0 1-.418-1.41c-.062-.202 7.633 7.844 9.615 10.061Zm62.879-9.456c-.836 3.41-2.834 6.533-5.31 8.297-1.131.79-3.16 1.697-4.305 1.898-.589.1-.403-.117 4.567-5.425 2.85-3.057 5.203-5.543 5.218-5.56 0 0-.062.353-.17.79Zm-52.025.587c.635.387 1.146.756 1.146.807 0 .134-6.41 7.054-6.534 7.054-.14 0 .263-1.763.681-3.04.558-1.663 1.44-3.242 2.478-4.434.51-.605.975-1.092 1.006-1.092.047 0 .604.32 1.223.705Zm35.628 2.94a18.732 18.732 0 0 1 1.424 4.216l.14.705-.883-.823c-.48-.453-1.966-2.032-3.313-3.51l-2.447-2.67 1.208-.757 1.208-.772 1.022 1.159c.65.722 1.254 1.612 1.64 2.452Zm-31.075-.672c.387.151.727.302.758.32.108.083-.913 1.847-1.564 2.703-1.656 2.15-4.397 3.864-6.859 4.317-.604.1-.51-.017 3.02-3.762 1.997-2.117 3.7-3.864 3.793-3.864.077 0 .464.135.851.286ZM56.973.382c-.418.403-1.889 4.165-1.889 4.837 0 1.36 1.672 1.613 2.23.353.852-1.965 1.486-3.763 1.486-4.233 0-.99-1.145-1.596-1.827-.957ZM11.73 7.15c-.186.202-.31.555-.31.908 0 .487.109.689.666 1.159 1.425 1.226 3.19 2.469 3.546 2.469.82 0 1.44-1.058 1.069-1.83-.093-.169-.96-.942-1.936-1.68-1.904-1.479-2.446-1.663-3.035-1.025ZM63.167 8.192c-1.89 1.462-2.184 1.881-1.874 2.688.202.537.573.806 1.1.806.325 0 2.926-1.864 3.808-2.738.434-.437.465-1.327.031-1.797-.588-.638-1.16-.437-3.065 1.041ZM7.364 16.725c-.372.42-.449.605-.356.974.17.773.542.991 2.74 1.63 1.982.554 2.153.587 2.57.352.496-.269.651-.571.651-1.193 0-.772-.449-1.058-2.632-1.68-1.146-.318-2.183-.587-2.292-.587-.123 0-.418.235-.68.504ZM67.549 16.826c-2.106.621-2.555.907-2.555 1.662 0 .622.155.924.65 1.193.418.235.589.202 2.57-.353 2.215-.638 2.819-1.007 2.819-1.78 0-.437-.821-1.327-1.193-1.31-.155 0-1.177.268-2.291.588Z"/></svg>
